icons/TrianglesLeftDouble.svg

<svg width="24" height="24" viewBox="0 0 24 24" fill="none" xmlns="http://www.w3.org/2000/svg">
<path fill-rule="evenodd" clip-rule="evenodd" d="M14.139,12l6.111,5.3471v-10.6943zM19.6769,5.16114c0.8082,-0.7072 2.0731,-0.13322 2.0731,0.94072v11.79624c0,1.0739 -1.2649,1.6479 -2.0731,0.9407l-6.7407,-5.8981c-0.5692,-0.498 -0.5691,-1.3834 0,-1.8814zM3.13899,12l6.11105,5.3472v-10.69439zM8.67691,5.16115c0.80823,-0.7072 2.07309,-0.13322 2.07309,0.94072v11.79623c0,1.074 -1.26486,1.6479 -2.07309,0.9407l-6.7407,-5.8981c-0.56916,-0.498 -0.56916,-1.3834 0,-1.8814z" fill="#002B51"/>
</svg>

<svg width="24" height="24" viewBox="0 0 24 24" fill="none" xmlns="http://www.w3.org/2000/svg">
<path fill-rule="evenodd" clip-rule="evenodd" d="M14.139 12L20.25 17.3471V6.6528L14.139 12ZM19.6769 5.16114C20.4851 4.45394 21.75 5.02792 21.75 6.10186V17.8981C21.75 18.972 20.4851 19.546 19.6769 18.8388L12.9362 12.9407C12.367 12.4427 12.3671 11.5573 12.9362 11.0593L19.6769 5.16114ZM3.13899 12L9.25004 17.3472V6.65281L3.13899 12ZM8.67691 5.16115C9.48514 4.45395 10.75 5.02793 10.75 6.10187V17.8981C10.75 18.9721 9.48514 19.546 8.67691 18.8388L1.93621 12.9407C1.36705 12.4427 1.36705 11.5573 1.93621 11.0593L8.67691 5.16115Z" fill="#002B51"/>
</svg>
